X:1
T:[ID 7-156]
T:[ID 7-156]
T:Bezeichnung standardisiert: Menuet [mit Trio] 7. Menuet [mit Trio] [Text] et Basso
T:Urheber unbekannt Datum in der hier transkribierten schriftlichen Quelle: 1776 - 1791
C:Urheber unbekannt
C:Datum in der hier transkribierten schriftlichen Quelle: 1776 - 1791
L:1/8
M:3/4
K:Eb
V:1 bass 
V:1
 z2 z2 E,2 | B,2 A,2 G,2 | A,2 G,2 E,2 | F,2 B,,2 E,2 | B,4 D2 | CB,=A,G,F,E, | D,E, F,2 F,,2 | %7
 B,,2 F,,2 B,,2 :: z2 z2 B,,2 | F,2 E,2 D,2 | E,2 A,2 =A,2 | B,2 B,_A,G,F, | E,4 G,2 | %13
 F,E,D,C,B,,A,, | G,,A,, B,,2 B,,2 | E,2 B,,2 E,,2 :|[M:3/4]"^Trio" !fermata!E,EB,EG,B, | E,6 | %18
 B,,4 B,2 | (E,D,)(F,D,) E,2 | A,,4 A,2 | B,2 B,,2 E,2 | z2 D,2 E,2 | B,2 F,2 B,,2 :: %24
 B,,B,F,B,D,F, | B,,6 | E,4 E,2 | B,2 B,,2 E,2 | A,4 A,,2 | E,4 E,2 | A,2 B,2 B,,2 | %31
 E,2 B,,2 E,,2 :| %32

